packages/axiom-materials/src/icon_svgs/box-collapse.svg

<svg height="16" viewBox="0 0 16 16" width="16" xmlns="http://www.w3.org/2000/svg"><path d="m7 12.5v2.5h2v-2.5h3l-4-4-4 4zm2-9v-2.5h-2v2.5h-3l4 4 4-4z" fill-rule="evenodd"/></svg>

<?xml version="1.0" encoding="UTF-8"?>
<svg width="16px" height="16px" viewBox="0 0 16 16" version="1.1" xmlns="http://www.w3.org/2000/svg" xmlns:xlink="http://www.w3.org/1999/xlink">
    <!-- Generator: sketchtool 43.2 (39069) - http://www.bohemiancoding.com/sketch -->
    <title>box-collapse</title>
    <desc>Created with sketchtool.</desc>
    <defs></defs>
    <g id="Page-1" stroke="none" stroke-width="1" fill="none" fill-rule="evenodd">
        <g id="box-collapse" fill="#000000">
            <path d="M7,12.5 L7,15 L9,15 L9,12.5 L12,12.5 L8,8.5 L4,12.5 L7,12.5 L7,12.5 Z M9,3.5 L9,1 L7,1 L7,3.5 L4,3.5 L8,7.5 L12,3.5 L9,3.5 L9,3.5 Z" id="Box-Collapse"></path>
        </g>
    </g>
</svg>
